images/project.svg

<svg fill="none" height="16" viewBox="0 0 16 16" width="16" xmlns="http://www.w3.org/2000/svg"><g stroke="#111" stroke-linecap="round" stroke-linejoin="round" stroke-width="1.33"><path d="m13.3335 4.66669h-10.66667c-.73638 0-1.33333.59695-1.33333 1.33333v6.66668c0 .7364.59695 1.3333 1.33333 1.3333h10.66667c.7364 0 1.3333-.5969 1.3333-1.3333v-6.66668c0-.73638-.5969-1.33333-1.3333-1.33333z"/><path d="m10.6668 14v-10.66667c0-.35362-.1404-.69276-.3905-.94281-.25-.25004-.58918-.39052-.9428-.39052h-2.66667c-.35362 0-.69276.14048-.94281.39052-.25005.25005-.39052.58919-.39052.94281v10.66667"/></g></svg>

<svg width="16" height="16" viewBox="0 0 16 16" fill="none" xmlns="http://www.w3.org/2000/svg">
<path d="M13.3335 4.66669H2.66683C1.93045 4.66669 1.3335 5.26364 1.3335 6.00002V12.6667C1.3335 13.4031 1.93045 14 2.66683 14H13.3335C14.0699 14 14.6668 13.4031 14.6668 12.6667V6.00002C14.6668 5.26364 14.0699 4.66669 13.3335 4.66669Z" stroke="#111111" stroke-width="1.33" stroke-linecap="round" stroke-linejoin="round"/>
<path d="M10.6668 14V3.33333C10.6668 2.97971 10.5264 2.64057 10.2763 2.39052C10.0263 2.14048 9.68712 2 9.3335 2H6.66683C6.31321 2 5.97407 2.14048 5.72402 2.39052C5.47397 2.64057 5.3335 2.97971 5.3335 3.33333V14" stroke="#111111" stroke-width="1.33" stroke-linecap="round" stroke-linejoin="round"/>
</svg>
